icons/desktop/16/svg/sparkle-single-16.svg

<svg width="16" height="16" viewBox="0 0 16 16" fill="none" xmlns="http://www.w3.org/2000/svg">
<path fill-rule="evenodd" clip-rule="evenodd" d="M6.12731 2.25157C6.82395 0.582809 9.17384 0.582809 9.87047 2.25157L10.1234 2.88927C10.3894 3.59374 10.5969 4.26651 10.7591 4.88829C10.8001 5.04568 10.9356 5.19029 11.1449 5.24474C11.6824 5.38511 12.2542 5.55879 12.849 5.77403C13.1544 5.88481 13.452 6.00039 13.7377 6.12071C15.4084 6.82058 15.4286 9.16827 13.7435 9.87462C13.4859 9.98267 13.2174 10.0881 12.9408 10.19L12.9418 10.191C12.312 10.4238 11.7097 10.6077 11.1439 10.7555C10.9599 10.8041 10.835 10.9208 10.7797 11.0524L10.7601 11.11C10.5867 11.7716 10.3627 12.4911 10.0697 13.2496C10.0034 13.4216 9.93526 13.5901 9.86657 13.7545C9.17272 15.4155 6.82603 15.4155 6.13219 13.7545L5.92809 13.2496L5.72106 12.6881C5.52621 12.1349 5.36774 11.6061 5.23766 11.11L5.23668 11.109C5.19589 10.9531 5.06343 10.8109 4.85485 10.7565C4.29086 10.6079 3.68711 10.4229 3.057 10.191C2.78035 10.0891 2.51192 9.98267 2.25426 9.87462C0.568449 9.16797 0.592186 6.82062 2.26012 6.12071L2.69665 5.94395C2.84469 5.88619 2.99512 5.82942 3.14782 5.77403C3.74261 5.55879 4.31439 5.38511 4.85192 5.24474C5.06076 5.19042 5.19682 5.04706 5.23864 4.88731C5.40158 4.26565 5.60821 3.59518 5.87438 2.89024C5.95692 2.66988 6.04173 2.45675 6.12731 2.25157ZM8.48571 2.82872C8.3137 2.4173 7.76961 2.39155 7.55114 2.75157L7.51207 2.82872C7.43194 3.02085 7.35387 3.21772 7.27868 3.41856L7.2777 3.42052C7.09344 3.90855 6.93989 4.37901 6.8109 4.82677L6.68981 5.2672C6.49764 6.00127 5.91378 6.51716 5.23082 6.69493C4.85872 6.7921 4.46969 6.90767 4.06676 7.04259L3.65954 7.18419C3.37521 7.28732 3.10225 7.39396 2.84215 7.50353C2.38298 7.696 2.3917 8.30644 2.83336 8.49181C3.07098 8.59145 3.31907 8.68902 3.5736 8.78282C4.15465 8.99664 4.71239 9.16792 5.23375 9.30528C5.91277 9.48268 6.49731 9.99652 6.68883 10.7301L6.81774 11.1988C6.91031 11.5178 7.0159 11.8488 7.1361 12.19L7.3275 12.7086L7.51598 13.1764L7.55504 13.2525C7.77107 13.6066 8.31368 13.5813 8.48278 13.1764L8.67028 12.7096C8.94117 12.0083 9.14842 11.3424 9.30895 10.7301L9.34997 10.5953C9.57466 9.93417 10.128 9.47358 10.7611 9.30626L10.7631 9.30528C11.2847 9.16913 11.8408 8.99872 12.4222 8.7838L12.7992 8.63927C12.9227 8.59057 13.0444 8.54173 13.1634 8.49181C13.6059 8.30609 13.6163 7.69582 13.1576 7.50353H13.1556C13.0256 7.44876 12.8925 7.39458 12.7562 7.34142L12.3382 7.18419C11.7894 6.98559 11.2622 6.82547 10.766 6.69591C10.1265 6.52914 9.57205 6.06348 9.34801 5.40099L9.30797 5.26622C9.15821 4.69218 8.96599 4.07182 8.72008 3.42052L8.48571 2.82872Z" fill="black"/>
</svg>

<!-- This Source Code Form is subject to the terms of the Mozilla Public
   - License, v. 2.0. If a copy of the MPL was not distributed with this
   - file, You can obtain one at http://mozilla.org/MPL/2.0/. -->
<svg xmlns="http://www.w3.org/2000/svg" width="16" height="16" fill="context-fill" fill-opacity="context-fill-opacity" viewBox="0 0 16 16">
    <path fill-rule="evenodd" d="M6.127 2.252c.697-1.67 3.047-1.67 3.743 0l.253.637c.266.705.474 1.378.636 2a.52.52 0 0 0 .386.356 19.5 19.5 0 0 1 2.593.876c1.67.7 1.69 3.047.005 3.754q-.387.162-.802.315v.001c-.629.233-1.231.417-1.797.564a.53.53 0 0 0-.364.297l-.02.058a20 20 0 0 1-.893 2.645c-.694 1.66-3.041 1.66-3.735 0l-.204-.505-.207-.562a20 20 0 0 1-.483-1.578l-.001-.001a.51.51 0 0 0-.382-.352 20 20 0 0 1-2.6-.882C.567 9.168.591 6.82 2.26 6.12l.437-.177q.222-.087.45-.17a20 20 0 0 1 1.705-.53.52.52 0 0 0 .387-.357 20 20 0 0 1 .888-2.635m2.359.577a.524.524 0 0 0-.935-.077l-.039.077a17 17 0 0 0-.233.59l-.001.002q-.276.733-.467 1.406l-.121.44c-.192.734-.776 1.25-1.46 1.428q-.558.146-1.163.348l-.407.141q-.428.155-.818.32a.53.53 0 0 0-.009.988 18 18 0 0 0 2.4.813c.68.178 1.264.692 1.456 1.425l.129.469q.138.479.318.991l.191.519.189.467.039.076a.522.522 0 0 0 .928-.076l.187-.466c.271-.702.478-1.368.639-1.98l.041-.135a2.02 2.02 0 0 1 1.411-1.289h.002a18 18 0 0 0 1.66-.522l.376-.145q.186-.072.364-.147a.53.53 0 0 0-.005-.988h-.002a16 16 0 0 0-.4-.163l-.418-.157a18 18 0 0 0-1.572-.488A2.02 2.02 0 0 1 9.348 5.4l-.04-.135a18 18 0 0 0-.588-1.845z" clip-rule="evenodd" />
</svg>
